X:1
T:Title
%%score { ( 1 3 ) | ( 2 4 ) }
L:1/8
Q:1/4=126
M:6/4
K:Db
V:1 treble nm="Grand Piano"
V:3 treble 
V:2 bass 
V:4 bass 
V:1
 F4 G2 A4 [Fd]2 | d2 c2 [_FB]2 [=FA]4 F2 | D4 D2 D2 C2 [F,A,D]2 | %3
w: Edith~C.~Doddrell * * *|||
 [A,DF]2 [CE]2[K:bass] [F,D]2 [A,CE]6 | F4 G2 A4 A2 | =A4 A2 c4 B2 | .[B,B]6[K:bass] z6 | %7
w: ||||
 [A,CF]4 [G,CE]2 [F,D]6 |] %8
w: |
V:2
 [D,A,D]4 [E,A,C]2 [D,B,D]4 [D,A,]2 | [D,=G,]4 [D,G,]2 [D,A,]4 [D,A,D]2 | z6 .=F,6 | %3
 z2 G,2 A,,2 A,,6 | [D,A,D]4 [E,A,C]2 [F,A,D]4 [F,D]2 | [G,CE]4 [G,CE]2 [G,=A,E]4 [G,B,D]2 | %6
 .[G,,G,]4 [G,,E,]2 A,,4 B,,2 | A,,4 A,,2 D,6 |] %8
V:3
 x12 | ._F6 z6 | x12 | x4[K:bass] x8 | x12 | x12 | z2[K:bass] D,2 [=A,G]2 [F,_A,F]4 [F,D]2 | x12 |] %8
V:4
 x12 | x12 | [B,,_F,=G,]4 [B,,F,G,]2 [A,,A,]2- [A,,E,A,]2 A,,2 | .A,,6 z6 | x12 | x12 | x12 | %7
 x12 |] %8

